!!!!SEGMENT: pl-kk--kk-i-3--040_anonim--kyrie.krn
!!!cenid: 15xx:650
!!!COM: Anonim
!!!COM-rismid: pe30004985
!!!CDT:
!!!CNT:
!!!OTL: Kyrie
!!!PDT:
!!!AGN:
!!!SMS-siglum: PL-Kk
!!!SMS-shelfmark: Kk.I.3
!!!SMS-shelfwork: 040 W
!!!SMS-variant:
!!!SMS-altvar:
!!!NIFC-rismid: 1001145493
!!!URL-scan: http://repozytorium.nifc.pl/skany/pl-kk-nut--i-3
!!!ONB-nifc: UWAGA: Discantus (s. 118v-119r, skan 0121), Tenor (s. 89v, skan 0262), Bassus (s. 114v-115r, skan 0418)
!!!key: G:mix
**kern	**text	**kern	**text	**kern	**text
*part3	*part3	*part2	*part2	*part1	*part1
*staff3	*staff3	*staff2	*staff2	*staff1	*staff1
*Ibass	*	*Itenor	*	*Iempty	*
*I"Bassus	*	*I"Tenor	*	*I"Discantus	*
*I'B	*	*I'T	*	*I'S	*
*ICvox	*	*ICvox	*	*ICvox	*
*clefF4	*	*clefC4	*	*clefC3	*
*k[]	*	*k[]	*	*k[]	*
*G:mix	*	*G:mix	*	*G:mix	*
*M2/1	*	*M2/1	*	*M2/1	*
=1-	=1-	=1-	=1-	=1-	=1-
*2\right	*	*2\right	*	*2\right	*
!LO:TX:a:t=Feria quinta	!	!LO:TX:a:t=Feria quinta	!	!LO:TX:a:t=Feria quinta	!
!	!	!	!	!LO:TX:t=P:problem=kasownik przy kluczu	!
1G	Ki-	1G	Ki-	1g	Ki-
1D	-ri-	1A	-ri-	1f	-ri-
=2-	=2-	=2-	=2-	=2-	=2-
*	*	*lig	*	*	*
2GG/	-e	1B	-e	2g\	e
2.G\	.	.	.	1d	.
.	.	1G	.	.	.
4F\	.	.	.	.	.
2E/	.	.	.	2e\	.
*	*	*Xlig	*	*	*
=3-	=3-	=3-	=3-	=3-	=3-
1D	.	0d	.	1f	.
1G	.	.	.	1d	.
=4-	=4-	=4-	=4-	=4-	=4-
2.C/	.	1c	.	2.e\	.
4D/	.	.	.	4f\	.
!	!	!	!	!LO:SIC:v:t=custos f	!
4E/	.	1B	.	1g	.
!LO:SIC:v:t=custos G	!	!	!	!LO:LB:g=original	!
4F\	.	.	.	.	.
!LO:LB:g=original	!	!	!	!	!
2G\	.	.	.	.	.
=5-	=5-	=5-	=5-	=5-	=5-
2D/	.	1A	.	1f	.
2F\	.	.	.	.	.
1E	.	1G	.	2g\	.
.	.	.	.	2e/	.
=6-	=6-	=6-	=6-	=6-	=6-
1D	.	1A	.	1f	.
*	*	*lig	*	*	*
1GG	.	1B	.	2d/	.
.	.	.	.	2g\	.
=7-	=7-	=7-	=7-	=7-	=7-
2D/	.	1A	.	2f\	.
2C/	.	.	.	1g	.
*	*	*Xlig	*	*	*
1D	.	1A	leij-	.	.
.	.	.	.	2f\	.
=8-	=8-	=8-	=8-	=8-	=8-
!	!	!LO:SIC:v:t=custos G	!	!LO:TX:t=P:problem=fermata powyżej i poniżej	!
!	!	!LO:N:vis=1	!	!LO:N:vis=1	!
0GG;	.	0G;	-3(on)	0g;;	.
!	!	!LO:LB:g=original	!	!	!
=9-	=9-	=9-	=9-	=9-	=9-
1G	Cri-	1G	Cri-	2r	.
!	!	!	!	!LO:TX:b:t=Cri	!
.	.	.	.	1g	.
2E/	-ſte	1G	-ſte	.	.
!	!	!	!	!LO:SIC:v:t=custos g	!
2.G\	.	.	.	2d/	.
!	!	!	!	!LO:LB:g=original	!
=10-	=10-	=10-	=10-	=10-	=10-
.	.	1E	.	2.g\	.
4F/	.	.	.	.	.
4E/	.	.	.	.	.
!LO:SIC:v:t=custos C	!	!	!	!	!
4D/	.	.	.	4f\	.
!LO:LB:g=original	!	!	!	!	!
2C/	.	1G	.	4e\	.
.	.	.	.	4d/	.
2E/	.	.	.	2e\	.
=11-	=11-	=11-	=11-	=11-	=11-
1D	.	1F	.	2f\	.
.	.	.	.	1d	.
1AA	.	1E	.	.	.
.	.	.	.	2c/	.
=12-	=12-	=12-	=12-	=12-	=12-
1D	.	1F	.	0d	.
2.GG/	.	0D	.	.	.
4AA/	.	.	.	.	.
=13-	=13-	=13-	=13-	=13-	=13-
2BB/	.	.	.	2r	.
2GG/	.	.	.	2B/	.
*	*	*lig	*	*	*
1D	.	1F	.	1A	.
=14-	=14-	=14-	=14-	=14-	=14-
1AA	.	1E	.	0A	.
*	*	*Xlig	*	*	*
1D	leij-	1F	leij-	.	.
=15-	=15-	=15-	=15-	=15-	=15-
!	!	!	!	!LO:SIC:v:t=custos g	!
!	!	!LO:N:vis=1	!	!LO:N:vis=1	!
0GG;	-3on	0G;	-3on	0B;	.
!	!	!	!	!LO:LB:g=original	!
=16-	=16-	=16-	=16-	=16-	=16-
2G\	Ki-	1G	Ki-	1g	Ki-
!LO:SIC:v:t=custos F	!	!	!	!	!
2E/	-ri-	.	.	.	.
!LO:LB:g=original	!	!LO:SIC:v:t=custos B	!	!	!
2F\	-e	1A	-ri-	1f	-ri-
2D/	.	.	.	.	.
=17-	=17-	=17-	=17-	=17-	=17-
*	*	*lig	*	*	*
2G\	.	1B	-e	2d/	-e
2.E/	.	.	.	2.g\	.
.	.	1G	.	.	.
4F\	.	.	.	4f\	.
2G\	.	.	.	2.d/	.
*	*	*Xlig	*	*	*
=18-	=18-	=18-	=18-	=18-	=18-
1D	.	0d	.	.	.
.	.	.	.	4c/	.
.	.	.	.	2B/	.
2.D/	.	.	.	1A	.
4E/	.	.	.	.	.
=19-	=19-	=19-	=19-	=19-	=19-
*	*	*lig	*	*	*
2F\	.	1c	.	2A/	.
2C/	.	.	.	1G	.
1G	.	1B	.	.	.
.	.	.	.	1g\	.
*	*	*Xlig	*	*	*
=20-	=20-	=20-	=20-	=20-	=20-
*	*	*lig	*	*	*
1D	.	1A	.	.	.
.	.	.	.	2f\	.
2E/	.	1G	.	2g\	.
2C/	.	.	.	1e\	.
*	*	*Xlig	*	*	*
=21-	=21-	=21-	=21-	=21-	=21-
1F	.	1A	.	.	.
!	!	!	!	!LO:SIC:v:t=custos e	!
.	.	.	.	2d/	.
!LO:SIC:v:t=custos G	!	!	!	!LO:LB:g=original	!
*	*	*lig	*	*	*
2E/	.	1B	.	2e/	.
!LO:LB:g=original	!	!	!	!	!
2G\	.	.	.	2d/	.
=22-	=22-	=22-	=22-	=22-	=22-
0D	leij-	1A	.	0d	.
*	*	*Xlig	*	*	*
.	.	1A	leij-	.	.
=23-	=23-	=23-	=23-	=23-	=23-
!	!	!LO:N:vis=1	!	!	!
0GG;	-3on	0G;	-3on	0d;	.
=24-	=24-	=24-	=24-	=24-	=24-
1G	.	1G	Ki-	1g	Ki-
2C/	.	1A	-rie	2e\	-ri-
2D/	.	.	.	2f\	-e
=25-	=25-	=25-	=25-	=25-	=25-
*	*	*lig	*	*	*
2GG/	.	1B	vl-	1d	vl-
2.G\	.	.	.	.	.
.	.	1G	-ti-	1g	-ti-
4F\	.	.	.	.	.
2E/	.	.	.	.	.
*	*	*Xlig	*	*	*
=26-	=26-	=26-	=26-	=26-	=26-
!	!	!LO:SIC:v:t=custos c	!	!	!
2.D/	.	0d	-mu(m)	2.f\	-mu(m)
4E/	.	.	.	4e\	.
2F\	.	.	.	2d/	.
!LO:SIC:v:t=custos A	!	!	!	!	!
2G\	.	.	.	2g\	.
!LO:LB:g=original	!	!LO:LB:g=original	!	!	!
=27-	=27-	=27-	=27-	=27-	=27-
!	!	!	!	!LO:SIC:v:t=custos f	!
2A\	.	1c	.	2e\	.
!	!	!	!	!LO:LB:g=original	!
2F\	.	.	.	2f\	.
1G	.	1B	.	1d	.
=28-	=28-	=28-	=28-	=28-	=28-
2D/	.	1A	.	1f	.
2F/	.	.	.	.	.
2.E/	.	0G	.	2.g\	.
4D/	.	.	.	4f\	.
=29-	=29-	=29-	=29-	=29-	=29-
4C/	.	.	.	4e/	.
4BB/	.	.	.	4d/	.
1C	.	.	.	1e	.
*	*	*lig	*	*	*
.	.	1E	.	.	.
4BB/	.	.	.	4d/	.
4AA/	.	.	.	4c/	.
=30-	=30-	=30-	=30-	=30-	=30-
2GG/	.	1G	.	1d	.
2G\	.	.	.	.	.
*	*	*Xlig	*	*	*
2A\	.	1F	.	2r	.
2F\	.	.	.	2d/	.
=31-	=31-	=31-	=31-	=31-	=31-
*	*	*lig	*	*	*
1G	.	1E	.	2e/	.
.	.	.	.	2c/	.
!LO:SIC:v:t=custos A	!	!	!	!	!
1D	.	1F	.	1d	.
*	*	*Xlig	*	*	*
!LO:LB:g=original	!	!	!	!	!
=32-	=32-	=32-	=32-	=32-	=32-
!	!	!	!	!LO:SIC:v:t=custos f	!
0A	.	0D	.	0f	.
!	!	!	!	!LO:LB:g=original	!
=33-	=33-	=33-	=33-	=33-	=33-
*	*	*lig	*	*	*
1A	.	1F	.	2f\	.
.	.	.	.	1d	.
1AA	.	1E	.	.	.
.	.	.	.	2c/	.
*	*	*Xlig	*	*	*
=34-	=34-	=34-	=34-	=34-	=34-
1D	.	1F	leij-	0d;<	.
!LO:N:vis=00	!	!LO:N:vis=00/	!	!	!
0.GG;	.	0.G;	-3on	.	.
=35-	=35-	=35-	=35-	=35-	=35-
.	.	.	.	0g;<	.
==	==	==	==	==	==
*-	*-	*-	*-	*-	*-
!!!RDF**kern: < = below
!!!system-decoration: [(s1,s2,s3)]
!!!AIN: 1 bass 1 empty 1 tenor
!!!ENC: Filip Voros
!!!END: 2022-01-18
!!!ENC: Ursuzla Świątek
!!!END: 2022-01-25
